img/bb/underlined.svg

<svg fill="#757575" height="20" viewBox="0 0 24 24" width="20" xmlns="http://www.w3.org/2000/svg">
    <path d="M0 0h24v24H0z" fill="none"/>
    <path d="M12 17c3.31 0 6-2.69 6-6V3h-2.5v8c0 1.93-1.57 3.5-3.5 3.5S8.5 12.93 8.5 11V3H6v8c0 3.31 2.69 6 6 6zm-7 2v2h14v-2H5z"/>
</svg>

<?xml version="1.0" encoding="UTF-8"?><!DOCTYPE svg PUBLIC "-//W3C//DTD SVG 1.1//EN" "http://www.w3.org/Graphics/SVG/1.1/DTD/svg11.dtd"><svg fill="#757575" xmlns="http://www.w3.org/2000/svg" xmlns:xlink="http://www.w3.org/1999/xlink" version="1.1" width="24" height="24" viewBox="0 0 24 24"><path d="M5,21H19V19H5V21M12,17A6,6 0 0,0 18,11V3H15.5V11A3.5,3.5 0 0,1 12,14.5A3.5,3.5 0 0,1 8.5,11V3H6V11A6,6 0 0,0 12,17Z" /></svg>
